icons/zulip-logo.svg

<?xml version="1.0" encoding="UTF-8"?>
<svg width="512px" height="133px" viewBox="0 0 512 133" version="1.1" xmlns="http://www.w3.org/2000/svg" xmlns:xlink="http://www.w3.org/1999/xlink" preserveAspectRatio="xMidYMid">
    <g>
        <path d="M118.771703,19.7938202 C118.771703,26.4622931 115.776915,32.3872122 111.212729,35.9815455 L66.90515,75.5515407 C66.0822446,76.2568882 65.0124676,75.1195154 65.6061351,74.1702352 L81.8585172,41.6302035 C82.3140541,40.7191296 81.7233256,39.5993905 80.7887402,39.5993905 L17.7512456,39.5993905 C7.98806052,39.5993905 -7.10542736e-15,30.6885003 -7.10542736e-15,19.7996981 C-7.10542736e-15,8.90795704 7.98806052,2.90338922e-06 17.7512456,2.90338922e-06 L101.020458,2.90338922e-06 C110.783643,-0.00587208625 118.771703,8.90501809 118.771703,19.7938202 Z M17.7512456,132.379038 L101.020458,132.379038 C110.783643,132.379038 118.771703,123.468148 118.771703,112.579346 C118.771703,101.687605 110.783643,92.7796536 101.020458,92.7796536 L37.9829633,92.7796536 C37.0483778,92.7796536 36.4576493,91.6599144 36.9131862,90.7488406 L53.1655684,58.2088089 C53.7592359,57.2595287 52.6894588,56.1221558 51.8665534,56.8275033 L7.55897412,96.3916206 C2.99478796,99.983015 -7.10542736e-15,105.910873 -7.10542736e-15,112.579346 C-7.10542736e-15,123.468148 7.98806052,132.379038 17.7512456,132.379038 Z M171.311276,95.8919995 L207.983468,43.1084943 L207.983468,42.6500184 L174.738089,42.6500184 L174.738089,28.2550514 L230.604551,28.2550514 L230.604551,38.3091923 L194.731752,90.4079226 L194.731752,90.8663985 L231.177646,90.8663985 L231.177646,105.261366 L171.311276,105.261366 L171.311276,95.8919995 L171.311276,95.8919995 Z M270.935733,28.2550514 L270.935733,72.5861422 C270.935733,85.8378585 275.961334,92.5798051 284.875164,92.5798051 C294.015292,92.5798051 299.040893,86.1817155 299.040893,72.5861422 L299.040893,28.2550514 L316.407136,28.2550514 L316.407136,71.4399525 C316.407136,95.2042857 304.410351,106.513357 284.302069,106.513357 C264.878562,106.513357 253.454871,95.7744416 253.454871,71.2107146 L253.454871,28.2550514 L270.935733,28.2550514 L270.935733,28.2550514 Z M342.913508,28.2550514 L360.39437,28.2550514 L360.39437,90.6342216 L391.01233,90.6342216 L391.01233,105.258427 L342.913508,105.258427 L342.913508,28.2550514 Z M430.200262,28.2550514 L430.200262,105.258427 L412.719399,105.258427 L412.719399,28.2550514 L430.200262,28.2550514 Z M456.703694,29.2836832 C462.073152,28.3696704 469.614493,27.6848955 480.23879,27.6848955 C490.977705,27.6848955 498.633665,29.742159 503.773885,33.8537472 C508.687806,37.7390364 512,44.1371261 512,51.6755276 C512,59.216868 509.4872,65.6149577 504.917135,69.9557838 C498.977522,75.5544797 490.178311,78.0672802 479.897872,78.0672802 C477.614309,78.0672802 475.557045,77.9526612 473.958258,77.7234233 L473.958258,105.258427 L456.706633,105.258427 L456.706633,29.2836832 L456.703694,29.2836832 Z M473.955319,64.245408 C475.439488,64.5892649 477.267513,64.7009449 479.783253,64.7009449 C489.038,64.7009449 494.748376,60.0162619 494.748376,52.1340035 C494.748376,45.0511389 489.834455,40.8219928 481.152802,40.8219928 C477.61137,40.8219928 475.213189,41.1658497 473.955319,41.5067677 L473.955319,64.245408 L473.955319,64.245408 Z" fill="#000000"></path>
    </g>
</svg>

<svg xmlns="http://www.w3.org/2000/svg" viewBox="0 0 512 132.379">
  <path d="M118.772 19.794c0 6.668-2.995 12.593-7.56 16.188l-44.307 39.57c-.823.705-1.893-.432-1.299-1.382L81.86 41.63c.455-.91-.136-2.03-1.07-2.03H17.75C7.988 39.6 0 30.687 0 19.8 0 8.908 7.988 0 17.751 0h83.27c9.763-.006 17.75 8.905 17.75 19.794zM17.752 132.379h83.268c9.764 0 17.752-8.91 17.752-19.8 0-10.891-7.988-19.8-17.752-19.8H37.983c-.935 0-1.525-1.12-1.07-2.03l16.253-32.54c.593-.95-.477-2.087-1.3-1.381L7.56 96.392C2.995 99.983 0 105.91 0 112.579c0 10.89 7.988 19.8 17.751 19.8zm153.56-36.487 36.671-52.784v-.458h-33.245V28.255h55.867V38.31l-35.873 52.099v.458h36.446v14.395H171.31zm99.624-67.637v44.331c0 13.252 5.025 19.994 13.94 19.994 9.14 0 14.165-6.398 14.165-19.994v-44.33h17.366V71.44c0 23.764-11.997 35.073-32.105 35.073-19.423 0-30.847-10.739-30.847-35.302V28.255zm71.978 0h17.48v62.38h30.618v14.623h-48.098zm87.286 0v77.003h-17.48V28.255zm26.504 1.029c5.37-.914 12.91-1.6 23.535-1.6 10.739 0 18.395 2.058 23.535 6.17C508.688 37.739 512 44.137 512 51.676c0 7.54-2.513 13.939-7.083 18.28-5.94 5.598-14.739 8.111-25.02 8.111-2.283 0-4.34-.114-5.939-.344v27.535h-17.251V29.284zm17.251 34.961c1.484.344 3.313.456 5.828.456 9.255 0 14.965-4.685 14.965-12.567 0-7.083-4.914-11.312-13.595-11.312-3.542 0-5.94.344-7.198.685z"/>
</svg>
